web/public/images/baseline-people.svg

<svg width="15" height="12" viewBox="0 0 15 12" fill="none" xmlns="http://www.w3.org/2000/svg">
<path d="M10.2944 5.14727C11.4679 5.14727 12.4081 4.2 12.4081 3.02651C12.4081 1.85303 11.4679 0.905762 10.2944 0.905762C9.12095 0.905762 8.17368 1.85303 8.17368 3.02651C8.17368 4.2 9.12095 5.14727 10.2944 5.14727ZM4.78048 5.14727C5.95396 5.14727 6.89416 4.2 6.89416 3.02651C6.89416 1.85303 5.95396 0.905762 4.78048 0.905762C3.60699 0.905762 2.65972 1.85303 2.65972 3.02651C2.65972 4.2 3.60699 5.14727 4.78048 5.14727ZM4.78048 6.84387C2.23557 6.84387 0.538971 8.58995 0.538971 10.2371V11.0854H9.02198V10.2371C9.02198 8.58995 7.32538 6.84387 4.78048 6.84387Z" fill="#E2E2E2"/>
<path d="M9.87028 11.0854H14.1118V10.2371C14.1118 8.58995 12.8323 6.84387 10.2874 6.84387C9.55301 6.84387 8.88929 6.98926 8.31659 7.23571C9.56389 8.15855 9.87028 9.4734 9.87028 10.7461V11.0854Z" fill="#E2E2E2"/>
</svg>

<svg xmlns="http://www.w3.org/2000/svg" width="15" height="12" fill="none"><path fill="#E2E2E2" d="M10.294 5.147a2.11 2.11 0 0 0 2.114-2.12 2.118 2.118 0 1 0-4.234 0c0 1.173.947 2.12 2.12 2.12m-5.514 0a2.11 2.11 0 0 0 2.114-2.12 2.118 2.118 0 1 0-4.234 0c0 1.173.947 2.12 2.12 2.12m0 1.697C2.236 6.844.54 8.59.54 10.237v.848h8.483v-.848c0-1.647-1.697-3.393-4.242-3.393M9.87 11.085h4.242v-.848c0-1.647-1.28-3.393-3.825-3.393-.734 0-1.398.145-1.97.392 1.247.923 1.553 2.237 1.553 3.51z"/></svg>
